content/blogs/regnskap/hva-er-moms-mva/mva-import-eksport.svg

<svg xmlns="http://www.w3.org/2000/svg" viewBox="0 0 800 600"><defs><linearGradient id="a" x1="0%" x2="100%" y1="0%" y2="0%"><stop offset="0%" style="stop-color:#7c3aed;stop-opacity:1"/><stop offset="100%" style="stop-color:#6d28d9;stop-opacity:1"/></linearGradient><linearGradient id="b" x1="0%" x2="0%" y1="0%" y2="100%"><stop offset="0%" style="stop-color:#ddd6fe;stop-opacity:1"/><stop offset="100%" style="stop-color:#c4b5fd;stop-opacity:1"/></linearGradient><linearGradient id="c" x1="0%" x2="0%" y1="0%" y2="100%"><stop offset="0%" style="stop-color:#dcfce7;stop-opacity:1"/><stop offset="100%" style="stop-color:#bbf7d0;stop-opacity:1"/></linearGradient><linearGradient id="d" x1="0%" x2="0%" y1="0%" y2="100%"><stop offset="0%" style="stop-color:#fef3c7;stop-opacity:1"/><stop offset="100%" style="stop-color:#fde68a;stop-opacity:1"/></linearGradient></defs><path fill="#faf5ff" d="M0 0h800v600H0z"/><rect width="700" height="50" x="50" y="20" fill="url(#a)" rx="8"/><text x="400" y="50" fill="#fff" font-family="Arial, sans-serif" font-size="22" font-weight="bold" text-anchor="middle">MVA ved Import og Eksport</text><rect width="220" height="200" x="50" y="90" fill="url(#b)" stroke="#7c3aed" stroke-width="2" rx="10"/><text x="160" y="115" fill="#5b21b6" font-family="Arial, sans-serif" font-size="16" font-weight="bold" text-anchor="middle">IMPORT TIL NORGE</text><path fill="none" stroke="#5b21b6" stroke-linecap="round" stroke-width="3" d="M80 130h60l-5-5m5 5-5 5"/><text x="200" y="135" fill="#5b21b6" font-family="Arial, sans-serif" font-size="10" text-anchor="middle">INN</text><text x="60" y="155" fill="#5b21b6" font-family="Arial, sans-serif" font-size="12" font-weight="bold">Importmva:</text><text x="65" y="175" fill="#6d28d9" font-family="Arial, sans-serif" font-size="11">• Beregnes ved innførsel</text><text x="65" y="190" fill="#6d28d9" font-family="Arial, sans-serif" font-size="11">• Betales til Tolletaten</text><text x="65" y="205" fill="#6d28d9" font-family="Arial, sans-serif" font-size="11">• Fradragsrett for registrerte</text><text x="65" y="220" fill="#6d28d9" font-family="Arial, sans-serif" font-size="11">• Omvendt avgiftsplikt</text><text x="65" y="235" fill="#6d28d9" font-family="Arial, sans-serif" font-size="11">• Tjenester fra utlandet</text><rect width="30" height="20" x="180" y="250" fill="#7c3aed" stroke="#5b21b6" rx="2"/><rect width="20" height="10" x="185" y="255" fill="#fff" rx="1"/><circle cx="190" cy="275" r="3" fill="#7c3aed"/><circle cx="200" cy="275" r="3" fill="#7c3aed"/><rect width="220" height="200" x="290" y="90" fill="url(#c)" stroke="#16a34a" stroke-width="2" rx="10"/><text x="400" y="115" fill="#166534" font-family="Arial, sans-serif" font-size="16" font-weight="bold" text-anchor="middle">EKSPORT FRA NORGE</text><path fill="none" stroke="#16a34a" stroke-linecap="round" stroke-width="3" d="M380 130h60l-5-5m5 5-5 5"/><text x="460" y="135" fill="#16a34a" font-family="Arial, sans-serif" font-size="10" text-anchor="middle">UT</text><text x="300" y="155" fill="#166534" font-family="Arial, sans-serif" font-size="12" font-weight="bold">Nullsats (0%):</text><text x="305" y="175" fill="#15803d" font-family="Arial, sans-serif" font-size="11">• 0% MVA på eksport</text><text x="305" y="190" fill="#15803d" font-family="Arial, sans-serif" font-size="11">• Dokumentasjonskrav</text><text x="305" y="205" fill="#15803d" font-family="Arial, sans-serif" font-size="11">• Fradragsrett kostnader</text><text x="305" y="220" fill="#15803d" font-family="Arial, sans-serif" font-size="11">• Tjenester til utlandet</text><text x="305" y="235" fill="#15803d" font-family="Arial, sans-serif" font-size="11">• Skipsfart/luftfart</text><path fill="#16a34a" stroke="#15803d" d="M420 250h60l5 10-10 10h-50l-10-10Z"/><path fill="#15803d" d="M440 240h20v10h-20z"/><rect width="220" height="200" x="530" y="90" fill="url(#d)" stroke="#d97706" stroke-width="2" rx="10"/><text x="640" y="115" fill="#92400e" font-family="Arial, sans-serif" font-size="16" font-weight="bold" text-anchor="middle">EU/EØS HANDEL</text><path fill="#039" d="M620 125h40v25h-40z"/><circle cx="625" cy="132" r="1.5" fill="#fc0"/><circle cx="630" cy="130" r="1.5" fill="#fc0"/><circle cx="635" cy="132" r="1.5" fill="#fc0"/><circle cx="640" cy="137" r="1.5" fill="#fc0"/><circle cx="640" cy="143" r="1.5" fill="#fc0"/><circle cx="635" cy="148" r="1.5" fill="#fc0"/><circle cx="630" cy="150" r="1.5" fill="#fc0"/><circle cx="625" cy="148" r="1.5" fill="#fc0"/><circle cx="620" cy="143" r="1.5" fill="#fc0"/><circle cx="620" cy="137" r="1.5" fill="#fc0"/><circle cx="630" cy="140" r="1.5" fill="#fc0"/><circle cx="635" cy="140" r="1.5" fill="#fc0"/><text x="540" y="170" fill="#92400e" font-family="Arial, sans-serif" font-size="12" font-weight="bold">Særlige regler:</text><text x="545" y="190" fill="#a16207" font-family="Arial, sans-serif" font-size="11">• Erverv = import</text><text x="545" y="205" fill="#a16207" font-family="Arial, sans-serif" font-size="11">• Levering = eksport</text><text x="545" y="220" fill="#a16207" font-family="Arial, sans-serif" font-size="11">• VOEC-registeret</text><text x="545" y="235" fill="#a16207" font-family="Arial, sans-serif" font-size="11">• Terskelverdier</text><text x="545" y="250" fill="#a16207" font-family="Arial, sans-serif" font-size="11">• Fjernsalg</text><rect width="700" height="120" x="50" y="320" fill="#fff" stroke="#64748b" stroke-width="2" rx="10"/><text x="400" y="345" fill="#1e293b" font-family="Arial, sans-serif" font-size="16" font-weight="bold" text-anchor="middle">Prosessflyt Import/Eksport</text><rect width="120" height="60" x="80" y="360" fill="#e0e7ff" stroke="#6366f1" rx="5"/><text x="140" y="380" fill="#4338ca" font-family="Arial, sans-serif" font-size="11" font-weight="bold" text-anchor="middle">1. IMPORT</text><text x="140" y="395" fill="#4338ca" font-family="Arial, sans-serif" font-size="10" text-anchor="middle">Tolldeklarasjon</text><text x="140" y="408" fill="#4338ca" font-family="Arial, sans-serif" font-size="10" text-anchor="middle">Importmva betales</text><path fill="none" stroke="#64748b" stroke-linecap="round" stroke-width="2" d="M210 390h40l-5-5m5 5-5 5"/><rect width="120" height="60" x="260" y="360" fill="#fef3c7" stroke="#f59e0b" rx="5"/><text x="320" y="380" fill="#92400e" font-family="Arial, sans-serif" font-size="11" font-weight="bold" text-anchor="middle">2. REGISTRERING</text><text x="320" y="395" fill="#92400e" font-family="Arial, sans-serif" font-size="10" text-anchor="middle">Bokføring</text><text x="320" y="408" fill="#92400e" font-family="Arial, sans-serif" font-size="10" text-anchor="middle">Fradragsrett</text><path fill="none" stroke="#64748b" stroke-linecap="round" stroke-width="2" d="M390 390h40l-5-5m5 5-5 5"/><rect width="120" height="60" x="440" y="360" fill="#dcfce7" stroke="#16a34a" rx="5"/><text x="500" y="380" fill="#166534" font-family="Arial, sans-serif" font-size="11" font-weight="bold" text-anchor="middle">3. EKSPORT</text><text x="500" y="395" fill="#166534" font-family="Arial, sans-serif" font-size="10" text-anchor="middle">Nullsats 0%</text><text x="500" y="408" fill="#166534" font-family="Arial, sans-serif" font-size="10" text-anchor="middle">Dokumentasjon</text><path fill="none" stroke="#64748b" stroke-linecap="round" stroke-width="2" d="M570 390h40l-5-5m5 5-5 5"/><rect width="120" height="60" x="620" y="360" fill="#e0f2fe" stroke="#0284c7" rx="5"/><text x="680" y="380" fill="#0c4a6e" font-family="Arial, sans-serif" font-size="11" font-weight="bold" text-anchor="middle">4. MVA-MELDING</text><text x="680" y="395" fill="#0c4a6e" font-family="Arial, sans-serif" font-size="10" text-anchor="middle">Rapportering</text><text x="680" y="408" fill="#0c4a6e" font-family="Arial, sans-serif" font-size="10" text-anchor="middle">Oppgjør</text><rect width="700" height="120" x="50" y="460" fill="#f8fafc" stroke="#cbd5e1" rx="8"/><text x="400" y="485" fill="#1e293b" font-family="Arial, sans-serif" font-size="14" font-weight="bold" text-anchor="middle">Viktige Dokumenter og Krav</text><text x="80" y="510" fill="#475569" font-family="Arial, sans-serif" font-size="12" font-weight="bold">Import:</text><text x="85" y="525" fill="#64748b" font-family="Arial, sans-serif" font-size="11">• Tolldeklarasjon • Fraktdokumenter • Fakturaer</text><text x="80" y="545" fill="#475569" font-family="Arial, sans-serif" font-size="12" font-weight="bold">Eksport:</text><text x="85" y="560" fill="#64748b" font-family="Arial, sans-serif" font-size="11">• Eksportdeklarasjon • Fraktbrev • Bevis for utførsel</text><text x="450" y="510" fill="#475569" font-family="Arial, sans-serif" font-size="12" font-weight="bold">EU/EØS:</text><text x="455" y="525" fill="#64748b" font-family="Arial, sans-serif" font-size="11">• VIES-validering • MVA-nummer • Leveringsbevis</text><text x="450" y="545" fill="#475569" font-family="Arial, sans-serif" font-size="12" font-weight="bold">Terskelverdier:</text><text x="455" y="560" fill="#64748b" font-family="Arial, sans-serif" font-size="11">• Fjernsalg: 50 000 kr • VOEC-registrering</text></svg>

<svg viewBox="0 0 800 600" xmlns="http://www.w3.org/2000/svg">
  <defs>
    <linearGradient id="headerGrad" x1="0%" y1="0%" x2="100%" y2="0%">
      <stop offset="0%" style="stop-color:#7c3aed;stop-opacity:1" />
      <stop offset="100%" style="stop-color:#6d28d9;stop-opacity:1" />
    </linearGradient>
    <linearGradient id="importGrad" x1="0%" y1="0%" x2="0%" y2="100%">
      <stop offset="0%" style="stop-color:#ddd6fe;stop-opacity:1" />
      <stop offset="100%" style="stop-color:#c4b5fd;stop-opacity:1" />
    </linearGradient>
    <linearGradient id="exportGrad" x1="0%" y1="0%" x2="0%" y2="100%">
      <stop offset="0%" style="stop-color:#dcfce7;stop-opacity:1" />
      <stop offset="100%" style="stop-color:#bbf7d0;stop-opacity:1" />
    </linearGradient>
    <linearGradient id="euGrad" x1="0%" y1="0%" x2="0%" y2="100%">
      <stop offset="0%" style="stop-color:#fef3c7;stop-opacity:1" />
      <stop offset="100%" style="stop-color:#fde68a;stop-opacity:1" />
    </linearGradient>
  </defs>
  

  <rect width="800" height="600" fill="#faf5ff"/>
  

  <rect x="50" y="20" width="700" height="50" rx="8" fill="url(#headerGrad)"/>
  <text x="400" y="50" text-anchor="middle" fill="white" font-family="Arial, sans-serif" font-size="22" font-weight="bold">MVA ved Import og Eksport</text>
  

  <rect x="50" y="90" width="220" height="200" rx="10" fill="url(#importGrad)" stroke="#7c3aed" stroke-width="2"/>
  <text x="160" y="115" text-anchor="middle" fill="#5b21b6" font-family="Arial, sans-serif" font-size="16" font-weight="bold">IMPORT TIL NORGE</text>
  

  <path d="M80 130 L140 130 L135 125 M140 130 L135 135" stroke="#5b21b6" stroke-width="3" fill="none" stroke-linecap="round"/>
  <text x="200" y="135" text-anchor="middle" fill="#5b21b6" font-family="Arial, sans-serif" font-size="10">INN</text>
  
  <text x="60" y="155" fill="#5b21b6" font-family="Arial, sans-serif" font-size="12" font-weight="bold">Importmva:</text>
  <text x="65" y="175" fill="#6d28d9" font-family="Arial, sans-serif" font-size="11">• Beregnes ved innførsel</text>
  <text x="65" y="190" fill="#6d28d9" font-family="Arial, sans-serif" font-size="11">• Betales til Tolletaten</text>
  <text x="65" y="205" fill="#6d28d9" font-family="Arial, sans-serif" font-size="11">• Fradragsrett for registrerte</text>
  <text x="65" y="220" fill="#6d28d9" font-family="Arial, sans-serif" font-size="11">• Omvendt avgiftsplikt</text>
  <text x="65" y="235" fill="#6d28d9" font-family="Arial, sans-serif" font-size="11">• Tjenester fra utlandet</text>
  

  <rect x="180" y="250" width="30" height="20" rx="2" fill="#7c3aed" stroke="#5b21b6" stroke-width="1"/>
  <rect x="185" y="255" width="20" height="10" rx="1" fill="white"/>
  <circle cx="190" cy="275" r="3" fill="#7c3aed"/>
  <circle cx="200" cy="275" r="3" fill="#7c3aed"/>
  

  <rect x="290" y="90" width="220" height="200" rx="10" fill="url(#exportGrad)" stroke="#16a34a" stroke-width="2"/>
  <text x="400" y="115" text-anchor="middle" fill="#166534" font-family="Arial, sans-serif" font-size="16" font-weight="bold">EKSPORT FRA NORGE</text>
  

  <path d="M380 130 L440 130 L435 125 M440 130 L435 135" stroke="#16a34a" stroke-width="3" fill="none" stroke-linecap="round"/>
  <text x="460" y="135" text-anchor="middle" fill="#16a34a" font-family="Arial, sans-serif" font-size="10">UT</text>
  
  <text x="300" y="155" fill="#166534" font-family="Arial, sans-serif" font-size="12" font-weight="bold">Nullsats (0%):</text>
  <text x="305" y="175" fill="#15803d" font-family="Arial, sans-serif" font-size="11">• 0% MVA på eksport</text>
  <text x="305" y="190" fill="#15803d" font-family="Arial, sans-serif" font-size="11">• Dokumentasjonskrav</text>
  <text x="305" y="205" fill="#15803d" font-family="Arial, sans-serif" font-size="11">• Fradragsrett kostnader</text>
  <text x="305" y="220" fill="#15803d" font-family="Arial, sans-serif" font-size="11">• Tjenester til utlandet</text>
  <text x="305" y="235" fill="#15803d" font-family="Arial, sans-serif" font-size="11">• Skipsfart/luftfart</text>
  

  <path d="M420 250 L480 250 L485 260 L475 270 L425 270 L415 260 Z" fill="#16a34a" stroke="#15803d" stroke-width="1"/>
  <rect x="440" y="240" width="20" height="10" fill="#15803d"/>
  

  <rect x="530" y="90" width="220" height="200" rx="10" fill="url(#euGrad)" stroke="#d97706" stroke-width="2"/>
  <text x="640" y="115" text-anchor="middle" fill="#92400e" font-family="Arial, sans-serif" font-size="16" font-weight="bold">EU/EØS HANDEL</text>
  

  <rect x="620" y="125" width="40" height="25" fill="#003399"/>
  <circle cx="625" cy="132" r="1.5" fill="#ffcc00"/>
  <circle cx="630" cy="130" r="1.5" fill="#ffcc00"/>
  <circle cx="635" cy="132" r="1.5" fill="#ffcc00"/>
  <circle cx="640" cy="137" r="1.5" fill="#ffcc00"/>
  <circle cx="640" cy="143" r="1.5" fill="#ffcc00"/>
  <circle cx="635" cy="148" r="1.5" fill="#ffcc00"/>
  <circle cx="630" cy="150" r="1.5" fill="#ffcc00"/>
  <circle cx="625" cy="148" r="1.5" fill="#ffcc00"/>
  <circle cx="620" cy="143" r="1.5" fill="#ffcc00"/>
  <circle cx="620" cy="137" r="1.5" fill="#ffcc00"/>
  <circle cx="630" cy="140" r="1.5" fill="#ffcc00"/>
  <circle cx="635" cy="140" r="1.5" fill="#ffcc00"/>
  
  <text x="540" y="170" fill="#92400e" font-family="Arial, sans-serif" font-size="12" font-weight="bold">Særlige regler:</text>
  <text x="545" y="190" fill="#a16207" font-family="Arial, sans-serif" font-size="11">• Erverv = import</text>
  <text x="545" y="205" fill="#a16207" font-family="Arial, sans-serif" font-size="11">• Levering = eksport</text>
  <text x="545" y="220" fill="#a16207" font-family="Arial, sans-serif" font-size="11">• VOEC-registeret</text>
  <text x="545" y="235" fill="#a16207" font-family="Arial, sans-serif" font-size="11">• Terskelverdier</text>
  <text x="545" y="250" fill="#a16207" font-family="Arial, sans-serif" font-size="11">• Fjernsalg</text>
  

  <rect x="50" y="320" width="700" height="120" rx="10" fill="white" stroke="#64748b" stroke-width="2"/>
  <text x="400" y="345" text-anchor="middle" fill="#1e293b" font-family="Arial, sans-serif" font-size="16" font-weight="bold">Prosessflyt Import/Eksport</text>
  

  <rect x="80" y="360" width="120" height="60" rx="5" fill="#e0e7ff" stroke="#6366f1" stroke-width="1"/>
  <text x="140" y="380" text-anchor="middle" fill="#4338ca" font-family="Arial, sans-serif" font-size="11" font-weight="bold">1. IMPORT</text>
  <text x="140" y="395" text-anchor="middle" fill="#4338ca" font-family="Arial, sans-serif" font-size="10">Tolldeklarasjon</text>
  <text x="140" y="408" text-anchor="middle" fill="#4338ca" font-family="Arial, sans-serif" font-size="10">Importmva betales</text>
  

  <path d="M210 390 L250 390 L245 385 M250 390 L245 395" stroke="#64748b" stroke-width="2" fill="none" stroke-linecap="round"/>
  

  <rect x="260" y="360" width="120" height="60" rx="5" fill="#fef3c7" stroke="#f59e0b" stroke-width="1"/>
  <text x="320" y="380" text-anchor="middle" fill="#92400e" font-family="Arial, sans-serif" font-size="11" font-weight="bold">2. REGISTRERING</text>
  <text x="320" y="395" text-anchor="middle" fill="#92400e" font-family="Arial, sans-serif" font-size="10">Bokføring</text>
  <text x="320" y="408" text-anchor="middle" fill="#92400e" font-family="Arial, sans-serif" font-size="10">Fradragsrett</text>
  

  <path d="M390 390 L430 390 L425 385 M430 390 L425 395" stroke="#64748b" stroke-width="2" fill="none" stroke-linecap="round"/>
  

  <rect x="440" y="360" width="120" height="60" rx="5" fill="#dcfce7" stroke="#16a34a" stroke-width="1"/>
  <text x="500" y="380" text-anchor="middle" fill="#166534" font-family="Arial, sans-serif" font-size="11" font-weight="bold">3. EKSPORT</text>
  <text x="500" y="395" text-anchor="middle" fill="#166534" font-family="Arial, sans-serif" font-size="10">Nullsats 0%</text>
  <text x="500" y="408" text-anchor="middle" fill="#166534" font-family="Arial, sans-serif" font-size="10">Dokumentasjon</text>
  

  <path d="M570 390 L610 390 L605 385 M610 390 L605 395" stroke="#64748b" stroke-width="2" fill="none" stroke-linecap="round"/>
  

  <rect x="620" y="360" width="120" height="60" rx="5" fill="#e0f2fe" stroke="#0284c7" stroke-width="1"/>
  <text x="680" y="380" text-anchor="middle" fill="#0c4a6e" font-family="Arial, sans-serif" font-size="11" font-weight="bold">4. MVA-MELDING</text>
  <text x="680" y="395" text-anchor="middle" fill="#0c4a6e" font-family="Arial, sans-serif" font-size="10">Rapportering</text>
  <text x="680" y="408" text-anchor="middle" fill="#0c4a6e" font-family="Arial, sans-serif" font-size="10">Oppgjør</text>
  

  <rect x="50" y="460" width="700" height="120" rx="8" fill="#f8fafc" stroke="#cbd5e1" stroke-width="1"/>
  <text x="400" y="485" text-anchor="middle" fill="#1e293b" font-family="Arial, sans-serif" font-size="14" font-weight="bold">Viktige Dokumenter og Krav</text>
  
  <text x="80" y="510" fill="#475569" font-family="Arial, sans-serif" font-size="12" font-weight="bold">Import:</text>
  <text x="85" y="525" fill="#64748b" font-family="Arial, sans-serif" font-size="11">• Tolldeklarasjon • Fraktdokumenter • Fakturaer</text>
  
  <text x="80" y="545" fill="#475569" font-family="Arial, sans-serif" font-size="12" font-weight="bold">Eksport:</text>
  <text x="85" y="560" fill="#64748b" font-family="Arial, sans-serif" font-size="11">• Eksportdeklarasjon • Fraktbrev • Bevis for utførsel</text>
  
  <text x="450" y="510" fill="#475569" font-family="Arial, sans-serif" font-size="12" font-weight="bold">EU/EØS:</text>
  <text x="455" y="525" fill="#64748b" font-family="Arial, sans-serif" font-size="11">• VIES-validering • MVA-nummer • Leveringsbevis</text>
  
  <text x="450" y="545" fill="#475569" font-family="Arial, sans-serif" font-size="12" font-weight="bold">Terskelverdier:</text>
  <text x="455" y="560" fill="#64748b" font-family="Arial, sans-serif" font-size="11">• Fjernsalg: 50 000 kr • VOEC-registrering</text>
</svg>
